tools/disit_items/ContrastAndSaturationBoost.cube
#Created by: Adobe Photoshop Export Color Lookup Plugin
TITLE "tコントラストと彩度の上昇"
#LUT size
LUT_3D_SIZE 32
#data domain
DOMAIN_MIN 0.0 0.0 0.0
DOMAIN_MAX 1.0 1.0 1.0
#LUT data points
0.000000 0.000000 0.000000
0.000000 0.000000 0.000000
0.000000 0.000000 0.000000
0.000000 0.000000 0.000000
0.000000 0.000000 0.000000
0.000000 0.000000 0.000000
0.000000 0.000000 0.000000
0.006836 0.000000 0.000000
0.110382 0.000000 0.000000
0.206329 0.000000 0.000000
0.288086 0.000000 0.000000
0.355042 0.000000 0.000000
0.409424 0.000000 0.000000
0.453156 0.000000 0.000000
0.488312 0.000000 0.000000
0.517151 0.000000 0.000000
0.541840 0.000000 0.000000
0.564423 0.000000 0.000000
0.587097 0.000000 0.000000
0.611908 0.000000 0.000000
0.641022 0.000000 0.000000
0.676544 0.000000 0.000000
0.720367 0.000000 0.000000
0.774536 0.000000 0.000000
0.839081 0.000000 0.000000
0.910919 0.000000 0.000000
0.986664 0.000000 0.000000
1.000000 0.000000 0.000000
1.000000 0.000000 0.000000
1.000000 0.000000 0.000000
1.000000 0.000000 0.000000
1.000000 0.000000 0.000000
0.000000 0.000000 0.000000
0.000000 0.000000 0.000000
0.000000 0.000000 0.000000
0.000000 0.000000 0.000000
0.000000 0.000000 0.000000
0.000000 0.000000 0.000000
0.000000 0.000000 0.000000
0.006836 0.000000 0.000000
0.110382 0.000000 0.000000
0.206329 0.000000 0.000000
0.288086 0.000000 0.000000
0.355042 0.000000 0.000000
0.409424 0.000000 0.000000
0.453156 0.000000 0.000000
0.488312 0.000000 0.000000
0.517151 0.000000 0.000000
0.541840 0.000000 0.000000
0.564423 0.000000 0.000000
0.587097 0.000000 0.000000
0.611908 0.000000 0.000000
0.641022 0.000000 0.000000
0.676544 0.000000 0.000000
0.720367 0.000000 0.000000
0.774536 0.000000 0.000000
0.839081 0.000000 0.000000
0.910919 0.000000 0.000000
0.986664 0.000000 0.000000
1.000000 0.000000 0.000000
1.000000 0.000000 0.000000
1.000000 0.000000 0.000000
1.000000 0.000000 0.000000
1.000000 0.000000 0.000000
0.000000 0.000000 0.000000
0.000000 0.000000 0.000000
0.000000 0.000000 0.000000
0.000000 0.000000 0.000000
0.000000 0.000000 0.000000
0.000000 0.000000 0.000000
0.000000 0.000000 0.000000
0.006836 0.000000 0.000000
0.110382 0.000000 0.000000
0.206329 0.000000 0.000000
0.288086 0.000000 0.000000
0.355042 0.000000 0.000000
0.409424 0.000000 0.000000
0.453156 0.000000 0.000000
0.488312 0.000000 0.000000
0.517151 0.000000 0.000000
0.541840 0.000000 0.000000
0.564423 0.000000 0.000000
0.587097 0.000000 0.000000
0.611908 0.000000 0.000000
0.641022 0.000000 0.000000
0.676544 0.000000 0.000000
0.720367 0.000000 0.000000
0.774536 0.000000 0.000000
0.839081 0.000000 0.000000
0.910919 0.000000 0.000000
0.986664 0.000000 0.000000
1.000000 0.000000 0.000000
1.000000 0.000000 0.000000
1.000000 0.000000 0.000000
1.000000 0.000000 0.000000
1.000000 0.000000 0.000000
0.000000 0.000000 0.000000
0.000000 0.000000 0.000000
0.000000 0.000000 0.000000
0.000000 0.000000 0.000000
0.000000 0.000000 0.000000
0.000000 0.000000 0.000000
0.000000 0.000000 0.000000
0.006836 0.000000 0.000000
0.110382 0.000000 0.000000
0.206329 0.000000 0.000000
0.288086 0.000000 0.000000
0.355042 0.000000 0.000000
0.409424 0.000000 0.000000
0.453156 0.000000 0.000000
0.488312 0.000000 0.000000
0.517151 0.000000 0.000000
0.541840 0.000000 0.000000
0.564423 0.000000 0.000000
0.587097 0.000000 0.000000
0.611908 0.000000 0.000000
0.641022 0.000000 0.000000
0.676544 0.000000 0.000000
0.720367 0.000000 0.000000
0.774536 0.000000 0.000000
0.839081 0.000000 0.000000
0.910919 0.000000 0.000000
0.986664 0.000000 0.000000
1.000000 0.000000 0.000000
1.000000 0.000000 0.000000
1.000000 0.000000 0.000000
1.000000 0.000000 0.000000
1.000000 0.000000 0.000000
0.000000 0.000000 0.000000
0.000000 0.000000 0.000000
0.000000 0.000000 0.000000
0.000000 0.000000 0.000000
0.000000 0.000000 0.000000
0.000000 0.000000 0.000000
0.000000 0.000000 0.000000
0.006836 0.000000 0.000000
0.110382 0.000000 0.000000
0.206329 0.000000 0.000000
0.288086 0.000000 0.000000
0.355042 0.000000 0.000000
0.409424 0.000000 0.000000
0.453156 0.000000 0.000000
0.488312 0.000000 0.000000
0.517151 0.000000 0.000000
0.541840 0.000000 0.000000
0.564423 0.000000 0.000000
0.587097 0.000000 0.000000
0.611908 0.000000 0.000000
0.641022 0.000000 0.000000
0.676544 0.000000 0.000000
0.720367 0.000000 0.000000
0.774536 0.000000 0.000000
0.839081 0.000000 0.000000
0.910919 0.000000 0.000000
0.986664 0.000000 0.000000
1.000000 0.000000 0.000000
1.000000 0.000000 0.000000
1.000000 0.000000 0.000000
1.000000 0.000000 0.000000
1.000000 0.000000 0.000000
0.000000 0.000000 0.000000
0.000000 0.000000 0.000000
0.000000 0.000000 0.000000
0.000000 0.000000 0.000000
0.000000 0.000000 0.000000
0.000000 0.000000 0.000000
0.000000 0.000000 0.000000
0.006836 0.000000 0.000000
0.110382 0.000000 0.000000
0.206329 0.000000 0.000000
0.288086 0.000000 0.000000
0.355042 0.000000 0.000000
0.409424 0.000000 0.000000
0.453156 0.000000 0.000000
0.488312 0.000000 0.000000
0.517151 0.000000 0.000000
0.541840 0.000000 0.000000
0.564423 0.000000 0.000000
0.587097 0.000000 0.000000
0.611908 0.000000 0.000000
0.641022 0.000000 0.000000
0.676544 0.000000 0.000000
0.720367 0.000000 0.000000
0.774536 0.000000 0.000000
0.839081 0.000000 0.000000
0.910919 0.000000 0.000000
0.986664 0.000000 0.000000
1.000000 0.000000 0.000000
1.000000 0.000000 0.000000
1.000000 0.000000 0.000000
1.000000 0.000000 0.000000
1.000000 0.000000 0.000000
0.000000 0.000000 0.000000
0.000000 0.000000 0.000000
0.000000 0.000000 0.000000
0.000000 0.000000 0.000000
0.000000 0.000000 0.000000
0.000000 0.000000 0.000000
0.000000 0.000000 0.000000
0.006836 0.000000 0.000000
0.110382 0.000000 0.000000
0.206329 0.000000 0.000000
0.288086 0.000000 0.000000
0.355042 0.000000 0.000000
0.409424 0.000000 0.000000
0.453156 0.000000 0.000000
0.488312 0.000000 0.000000
0.517151 0.000000 0.000000
0.541840 0.000000 0.000000
0.564423 0.000000 0.000000
0.587097 0.000000 0.000000
0.611908 0.000000 0.000000
0.641022 0.000000 0.000000
0.676544 0.000000 0.000000
0.720367 0.000000 0.000000
0.774536 0.000000 0.000000
0.839081 0.000000 0.000000
0.910919 0.000000 0.000000
0.986664 0.000000 0.000000
1.000000 0.000000 0.000000
1.000000 0.000000 0.000000
1.000000 0.000000 0.000000
1.000000 0.000000 0.000000
1.000000 0.000000 0.000000
0.000000 0.006866 0.000000
0.000000 0.006866 0.000000
0.000000 0.006866 0.000000
0.000000 0.006866 0.000000
0.000000 0.006866 0.000000
0.000000 0.006866 0.000000
0.000000 0.006866 0.000000
0.006866 0.006866 0.000000
0.110260 0.006531 0.000000
0.206421 0.004761 0.000000
0.288147 0.003174 0.000000
0.355103 0.000336 0.000000
0.409485 0.000000 0.000000
0.453186 0.000000 0.000000
0.488373 0.000000 0.000000
0.517181 0.000000 0.000000
0.541870 0.000000 0.000000
0.564484 0.000000 0.000000
0.587128 0.000000 0.000000
0.611938 0.000000 0.000000
0.641052 0.000000 0.000000
0.676544 0.000000 0.000000
0.720367 0.000000 0.000000
0.774567 0.000000 0.000000
0.839081 0.000000 0.000000
0.910919 0.000000 0.000000
0.986664 0.000000 0.000000
1.000000 0.000000 0.000000
1.000000 0.000000 0.000000
1.000000 0.000000 0.000000
1.000000 0.000000 0.000000
1.000000 0.000000 0.000000
0.000000 0.110443 0.000000
0.000000 0.110443 0.000000
0.000000 0.110443 0.000000
0.000000 0.110443 0.000000
0.000000 0.110443 0.000000
0.000000 0.110443 0.000000
0.000000 0.110443 0.000000
0.004761 0.110413 0.000000
0.110504 0.110504 0.000000
0.206879 0.110291 0.000000
0.288574 0.109467 0.000000
0.355835 0.107452 0.000000
0.410095 0.105560 0.000000
0.453827 0.103271 0.000000
0.488953 0.101562 0.000000
0.517792 0.099731 0.000000
0.542419 0.098145 0.000000
0.564911 0.097107 0.000000
0.587555 0.095398 0.000000
0.612366 0.093628 0.000000
0.641418 0.091705 0.000000
0.676910 0.088562 0.000000
0.720673 0.084534 0.000000
0.774841 0.078613 0.000000
0.839325 0.070068 0.000000
0.911133 0.057800 0.000000
0.986847 0.039795 0.000000
1.000000 0.033569 0.000000
1.000000 0.033569 0.000000
1.000000 0.033569 0.000000
1.000000 0.033569 0.000000
1.000000 0.033569 0.000000
0.000000 0.207977 0.000000
0.000000 0.207977 0.000000
0.000000 0.207977 0.000000
0.000000 0.207977 0.000000
0.000000 0.207977 0.000000
0.000000 0.207977 0.000000
0.000000 0.207977 0.000000
0.000000 0.207977 0.000000
0.108673 0.207977 0.000000
0.207489 0.207489 0.000000
0.290131 0.207001 0.000000
0.356628 0.205780 0.000000
0.410431 0.204651 0.000000
0.454193 0.203400 0.000000
0.489258 0.202515 0.000000
0.518097 0.201508 0.000000
0.542755 0.200745 0.000000
0.565308 0.200043 0.000000
0.587952 0.199158 0.000000
0.612762 0.198242 0.000000
0.641876 0.197083 0.000000
0.677338 0.195526 0.000000
0.721069 0.193481 0.000000
0.775208 0.190704 0.000000
0.839691 0.186951 0.000000
0.911407 0.182098 0.000000
0.987122 0.175873 0.000000
1.000000 0.174011 0.000000
1.000000 0.174011 0.000000
1.000000 0.174011 0.000000
1.000000 0.174011 0.000000
1.000000 0.174011 0.000000
0.000000 0.290924 0.000000
0.000000 0.290924 0.000000
0.000000 0.290924 0.000000
0.000000 0.290924 0.000000
0.000000 0.290924 0.000000
0.000000 0.290924 0.000000
0.000000 0.290924 0.000000
0.000000 0.290924 0.000000
0.099609 0.290955 0.000000
0.205383 0.290710 0.000000
0.289978 0.289978 0.000000
0.357819 0.289185 0.000000
0.412781 0.288086 0.000000
0.455719 0.286865 0.000000
0.490204 0.286011 0.000000
0.518494 0.285461 0.000000
0.542755 0.284973 0.000000
0.565369 0.284393 0.000000
0.588043 0.283783 0.000000
0.612885 0.283051 0.000000
0.642029 0.282227 0.000000
0.677429 0.281067 0.000000
0.721222 0.279541 0.000000
0.775391 0.277466 0.000000
0.839874 0.274750 0.000000
0.911652 0.271240 0.000000
0.987366 0.266876 0.000000
1.000000 0.265564 0.000000
1.000000 0.265564 0.000000
1.000000 0.265564 0.000000
1.000000 0.265564 0.000000
1.000000 0.265564 0.000000
0.000000 0.358582 0.000000
0.000000 0.358582 0.000000
0.000000 0.358582 0.000000
0.000000 0.358582 0.000000
0.000000 0.358582 0.000000
0.000000 0.358582 0.000000
0.000000 0.358582 0.000000
0.000000 0.358582 0.000000
0.085388 0.358612 0.000000
0.199799 0.358490 0.000000
0.287933 0.358002 0.000000
0.357178 0.357178 0.000000
0.412201 0.356323 0.000000
0.456421 0.355469 0.000000
0.492065 0.354614 0.000000
0.520477 0.353760 0.000000
0.544739 0.353058 0.000000
0.566925 0.352478 0.000000
0.589203 0.351929 0.000000
0.613556 0.351410 0.000000
0.642212 0.350830 0.000000
0.677368 0.349945 0.000000
0.721161 0.348602 0.000000
0.775421 0.346893 0.000000
0.839966 0.344543 0.000000
0.911774 0.341583 0.000000
0.987518 0.337952 0.000000
1.000000 0.336853 0.000000
1.000000 0.336853 0.000000
1.000000 0.336853 0.000000
1.000000 0.336853 0.000000
1.000000 0.336853 0.000000
0.000000 0.412872 0.000000
0.000000 0.412872 0.000000
0.000000 0.412872 0.000000
0.000000 0.412872 0.000000
0.000000 0.412872 0.000000
0.000000 0.412872 0.000000
0.000000 0.412872 0.000000
0.000000 0.412872 0.000000
0.071167 0.412903 0.000000
0.193878 0.412872 0.000000
0.284424 0.412567 0.000000
0.355347 0.411987 0.000000
0.411224 0.411224 0.000000
0.455627 0.410553 0.000000
0.491272 0.409912 0.000000
0.520538 0.409332 0.000000
0.545563 0.408722 0.000000
0.568420 0.408112 0.000000
0.590698 0.407410 0.000000
0.615143 0.406708 0.000000
0.643707 0.405914 0.000000
0.678406 0.404968 0.000000
0.721466 0.403931 0.000000
0.775299 0.402527 0.000000
0.839874 0.400452 0.000000
0.911774 0.397797 0.000000
0.987579 0.394531 0.000000
1.000000 0.393555 0.000000
1.000000 0.393555 0.000000
1.000000 0.393555 0.000000
1.000000 0.393555 0.000000
1.000000 0.393555 0.000000
0.000000 0.456543 0.000000
0.000000 0.456543 0.000000
0.000000 0.456543 0.000000
0.000000 0.456543 0.000000
0.000000 0.456543 0.000000
0.000000 0.456543 0.000000
0.000000 0.456543 0.000000
0.000000 0.456543 0.000000
0.055756 0.456573 0.000000
0.188202 0.456573 0.000000
0.280792 0.456360 0.000000
0.352966 0.455933 0.000000
0.409790 0.455353 0.000000
0.454742 0.454742 0.000000
0.490540 0.454163 0.000000
0.519867 0.453705 0.000000
0.544891 0.453217 0.000000
0.567810 0.452728 0.000000
0.590790 0.452209 0.000000
0.615997 0.451569 0.000000
0.644745 0.450562 0.000000
0.679474 0.449432 0.000000
0.722504 0.448181 0.000000
0.775879 0.446808 0.000000
0.839783 0.445221 0.000000
0.911743 0.442749 0.000000
0.987579 0.439728 0.000000
1.000000 0.438812 0.000000
1.000000 0.438812 0.000000
1.000000 0.438812 0.000000
1.000000 0.438812 0.000000
1.000000 0.438812 0.000000
0.000000 0.491699 0.000000
0.000000 0.491699 0.000000
0.000000 0.491699 0.000000
0.000000 0.491699 0.000000
0.000000 0.491699 0.000000
0.000000 0.491699 0.000000
0.000000 0.491699 0.000000
0.000000 0.491699 0.000000
0.039764 0.491730 0.000000
0.183197 0.491730 0.000000
0.277557 0.491608 0.000000
0.350616 0.491302 0.000000
0.408173 0.490814 0.000000
0.453644 0.490295 0.000000
0.489777 0.489777 0.000000
0.519226 0.489319 0.000000
0.544312 0.488892 0.000000
0.567261 0.488495 0.000000
0.590240 0.488068 0.000000
0.615295 0.487427 0.000000
0.644684 0.486603 0.000000
0.680145 0.485413 0.000000
0.723236 0.483978 0.000000
0.776581 0.482422 0.000000
0.840240 0.480804 0.000000
0.911652 0.478821 0.000000
0.987549 0.475952 0.000000
1.000000 0.475098 0.000000
1.000000 0.475098 0.000000
1.000000 0.475098 0.000000
1.000000 0.475098 0.000000
1.000000 0.475098 0.000000
0.000000 0.520569 0.000000
0.000000 0.520569 0.000000
0.000000 0.520569 0.000000
0.000000 0.520569 0.000000
0.000000 0.520569 0.000000
0.000000 0.520569 0.000000
0.000000 0.520569 0.000000
0.000000 0.520569 0.000000
0.023926 0.520599 0.000000
0.178650 0.520599 0.000000
0.274658 0.520508 0.000000
0.348450 0.520264 0.000000
0.406525 0.519867 0.000000
0.452423 0.519409 0.000000
0.488892 0.518982 0.000000
0.518555 0.518555 0.000000
0.543762 0.518158 0.000000
0.566711 0.517731 0.000000
0.589600 0.517242 0.000000
0.614685 0.516693 0.000000
0.644104 0.515961 0.000000
0.679871 0.514923 0.000000
0.723755 0.513489 0.000000
0.777161 0.511780 0.000000
0.840759 0.510010 0.000000
0.911774 0.508148 0.000000
0.987488 0.505615 0.000000
1.000000 0.504822 0.000000
1.000000 0.504822 0.000000
1.000000 0.504822 0.000000
1.000000 0.504822 0.000000
1.000000 0.504822 0.000000
0.000000 0.545258 0.000000
0.000000 0.545258 0.000000
0.000000 0.545258 0.000000
0.000000 0.545258 0.000000
0.000000 0.545258 0.000000
0.000000 0.545258 0.000000
0.000000 0.545258 0.000000
0.000000 0.545258 0.000000
0.009949 0.545288 0.000000
0.174561 0.545288 0.000000
0.272064 0.545227 0.000000
0.346497 0.545013 0.000000
0.404968 0.544678 0.000000
0.451172 0.544250 0.000000
0.487854 0.543823 0.000000
0.517670 0.543365 0.000000
0.542969 0.542969 0.000000
0.566010 0.542572 0.000000
0.589020 0.542145 0.000000
0.614136 0.541626 0.000000
0.643555 0.540955 0.000000
0.679382 0.540070 0.000000
0.723694 0.538757 0.000000
0.777557 0.536957 0.000000
0.841187 0.535034 0.000000
0.912170 0.533081 0.000000
0.987427 0.530914 0.000000
1.000000 0.530151 0.000000
1.000000 0.530151 0.000000
1.000000 0.530151 0.000000
1.000000 0.530151 0.000000
1.000000 0.530151 0.000000
0.000000 0.567627 0.000000
0.000000 0.567627 0.000000
0.000000 0.567627 0.000000
0.000000 0.567627 0.000000
0.000000 0.567627 0.000000
0.000000 0.567627 0.000000
0.000000 0.567627 0.000000
0.000000 0.567657 0.000000
0.000000 0.567657 0.000000
0.170624 0.567688 0.000000
0.269501 0.567627 0.000000
0.344482 0.567444 0.000000
0.403290 0.567169 0.000000
0.449738 0.566772 0.000000
0.486664 0.566406 0.000000
0.516663 0.566040 0.000000
0.542114 0.565643 0.000000
0.565277 0.565277 0.000000
0.588379 0.564880 0.000000
0.613556 0.564392 0.000000
0.643036 0.563782 0.000000
0.678864 0.562958 0.000000
0.723236 0.561768 0.000000
0.777863 0.560028 0.000000
0.841522 0.558014 0.000000
0.912506 0.555939 0.000000
0.987579 0.553833 0.000000
1.000000 0.553253 0.000000
1.000000 0.553253 0.000000
1.000000 0.553253 0.000000
1.000000 0.553253 0.000000
1.000000 0.553253 0.000000
0.000000 0.590027 0.000000
0.000000 0.590027 0.000000
0.000000 0.590027 0.000000
0.000000 0.590027 0.000000
0.000000 0.590027 0.000000
0.000000 0.590027 0.000000
0.000000 0.590027 0.000000
0.000000 0.590057 0.000000
0.000000 0.590057 0.000000
0.166412 0.590088 0.000000
0.266815 0.590057 0.000000
0.342377 0.589905 0.000000
0.401520 0.589630 0.000000
0.448242 0.589325 0.000000
0.485352 0.588989 0.000000
0.515533 0.588654 0.000000
0.541107 0.588318 0.000000
0.564423 0.587982 0.000000
0.587616 0.587616 0.000000
0.612915 0.587189 0.000000
0.642456 0.586609 0.000000
0.678375 0.585876 0.000000
0.722748 0.584778 0.000000
0.777588 0.583160 0.000000
0.841827 0.581055 0.000000
0.912811 0.578888 0.000000
0.987854 0.576721 0.000000
1.000000 0.576141 0.000000
1.000000 0.576141 0.000000
1.000000 0.576141 0.000000
1.000000 0.576141 0.000000
1.000000 0.576141 0.000000
0.000000 0.614563 0.000000
0.000000 0.614563 0.000000
0.000000 0.614563 0.000000
0.000000 0.614563 0.000000
0.000000 0.614563 0.000000
0.000000 0.614563 0.000000
0.000000 0.614563 0.000000
0.000000 0.614563 0.000000
0.000000 0.614594 0.000000
0.161469 0.614594 0.000000
0.263702 0.614563 0.000000
0.339905 0.614441 0.000000
0.399445 0.614258 0.000000
0.446442 0.613983 0.000000
0.483765 0.613708 0.000000
0.514130 0.613403 0.000000
0.539886 0.613129 0.000000
0.563324 0.612823 0.000000
0.586670 0.612488 0.000000
0.612091 0.612091 0.000000
0.641754 0.611572 0.000000
0.677734 0.610870 0.000000
0.722168 0.609894 0.000000
0.777100 0.608429 0.000000
0.842041 0.606354 0.000000
0.913086 0.604095 0.000000
0.988129 0.601837 0.000000
1.000000 0.601227 0.000000
1.000000 0.601227 0.000000
1.000000 0.601227 0.000000
1.000000 0.601227 0.000000
1.000000 0.601227 0.000000
0.000000 0.643311 0.000000
0.000000 0.643311 0.000000
0.000000 0.643311 0.000000
0.000000 0.643311 0.000000
0.000000 0.643311 0.000000
0.000000 0.643311 0.000000
0.000000 0.643311 0.000000
0.000000 0.643311 0.000000
0.000000 0.643341 0.000000
0.155029 0.643372 0.000000
0.259796 0.643341 0.000000
0.336853 0.643250 0.000000
0.396851 0.643066 0.000000
0.444183 0.642853 0.000000
0.481750 0.642609 0.000000
0.512329 0.642395 0.000000
0.538239 0.642151 0.000000
0.561829 0.641876 0.000000
0.585327 0.641571 0.000000
0.610931 0.641235 0.000000
0.640778 0.640778 0.000000
0.676910 0.640137 0.000000
0.721466 0.639252 0.000000
0.776459 0.637970 0.000000
0.841705 0.636078 0.000000
0.913361 0.633698 0.000000
0.988434 0.631348 0.000000
1.000000 0.630737 0.000000
1.000000 0.630737 0.000000
1.000000 0.630737 0.000000
1.000000 0.630737 0.000000
1.000000 0.630737 0.000000
0.000000 0.678345 0.000000
0.000000 0.678345 0.000000
0.000000 0.678345 0.000000
0.000000 0.678345 0.000000
0.000000 0.678345 0.000000
0.000000 0.678345 0.000000
0.000000 0.678345 0.000000
0.000000 0.678345 0.000000
0.000000 0.678345 0.000000
0.146301 0.678375 0.000000
0.254639 0.678375 0.000000
0.332886 0.678284 0.000000
0.393494 0.678162 0.000000
0.441193 0.678009 0.000000
0.479095 0.677826 0.000000
0.509888 0.677643 0.000000
0.536011 0.677429 0.000000
0.559784 0.677216 0.000000
0.583466 0.676971 0.000000
0.609253 0.676666 0.000000
0.639313 0.676270 0.000000
0.675690 0.675720 0.000000
0.720490 0.674927 0.000000
0.775604 0.673798 0.000000
0.840973 0.672150 0.000000
0.913483 0.669830 0.000000
0.988678 0.667389 0.000000
1.000000 0.666748 0.000000
1.000000 0.666748 0.000000
1.000000 0.666748 0.000000
1.000000 0.666748 0.000000
1.000000 0.666748 0.000000
0.000000 0.721741 0.000000
0.000000 0.721741 0.000000
0.000000 0.721741 0.000000
0.000000 0.721741 0.000000
0.000000 0.721741 0.000000
0.000000 0.721741 0.000000
0.000000 0.721741 0.000000
0.000000 0.721741 0.000000
0.000000 0.721741 0.000000
0.133636 0.721771 0.000000
0.247589 0.721771 0.000000
0.327515 0.721710 0.000000
0.388947 0.721619 0.000000
0.437195 0.721497 0.000000
0.475433 0.721375 0.000000
0.506500 0.721222 0.000000
0.532867 0.721069 0.000000
0.556854 0.720886 0.000000
0.580750 0.720703 0.000000
0.606812 0.720459 0.000000
0.637146 0.720123 0.000000
0.673859 0.719666 0.000000
0.718994 0.718994 0.000000
0.774414 0.718018 0.000000
0.839935 0.716614 0.000000
0.912598 0.714661 0.000000
0.988800 0.712128 0.000000
1.000000 0.711487 0.000000
1.000000 0.711487 0.000000
1.000000 0.711487 0.000000
1.000000 0.711487 0.000000
1.000000 0.711487 0.000000
0.000000 0.775391 0.000000
0.000000 0.775391 0.000000
0.000000 0.775391 0.000000
0.000000 0.775391 0.000000
0.000000 0.775391 0.000000
0.000000 0.775391 0.000000
0.000000 0.775391 0.000000
0.000000 0.775391 0.000000
0.000000 0.775421 0.000000
0.113953 0.775421 0.000000
0.237549 0.775421 0.000000
0.320068 0.775421 0.000000
0.382721 0.775360 0.000000
0.431641 0.775269 0.000000
0.470367 0.775177 0.000000
0.501801 0.775055 0.000000
0.528473 0.774933 0.000000
0.552704 0.774811 0.000000
0.576874 0.774689 0.000000
0.603180 0.774475 0.000000
0.633881 0.774231 0.000000
0.670990 0.773865 0.000000
0.716614 0.773346 0.000000
0.772552 0.772552 0.000000
0.838470 0.771393 0.000000
0.911377 0.769775 0.000000
0.987976 0.767639 0.000000
1.000000 0.766968 0.000000
1.000000 0.766968 0.000000
1.000000 0.766968 0.000000
1.000000 0.766968 0.000000
1.000000 0.766968 0.000000
0.000000 0.839203 0.000000
0.000000 0.839203 0.000000
0.000000 0.839203 0.000000
0.000000 0.839203 0.000000
0.000000 0.839203 0.000000
0.000000 0.839203 0.000000
0.000000 0.839203 0.000000
0.000000 0.839203 0.000000
0.000000 0.839203 0.000000
0.080505 0.839203 0.000000
0.223236 0.839233 0.000000
0.309753 0.839203 0.000000
0.374207 0.839172 0.000000
0.424164 0.839111 0.000000
0.463531 0.839050 0.000000
0.495422 0.838989 0.000000
0.522461 0.838898 0.000000
0.547028 0.838806 0.000000
0.571503 0.838715 0.000000
0.598145 0.838562 0.000000
0.629211 0.838409 0.000000
0.666779 0.838135 0.000000
0.712952 0.837738 0.000000
0.769562 0.837128 0.000000
0.836212 0.836212 0.000000
0.909637 0.834961 0.000000
0.986542 0.833282 0.000000
1.000000 0.832764 0.000000
1.000000 0.832764 0.000000
1.000000 0.832764 0.000000
1.000000 0.832764 0.000000
1.000000 0.832764 0.000000
0.000000 0.910156 0.000000
0.000000 0.910156 0.000000
0.000000 0.910156 0.000000
0.000000 0.910156 0.000000
0.000000 0.910156 0.000000
0.000000 0.910156 0.000000
0.000000 0.910156 0.000000
0.000000 0.910156 0.000000
0.000000 0.910187 0.000000
0.008392 0.910187 0.000000
0.203003 0.910187 0.000000
0.295929 0.910187 0.000000
0.363007 0.910156 0.000000
0.414398 0.910126 0.000000
0.454681 0.910095 0.000000
0.487213 0.910034 0.000000
0.514709 0.909973 0.000000
0.539673 0.909943 0.000000
0.564514 0.909851 0.000000
0.591553 0.909790 0.000000
0.623047 0.909668 0.000000
0.661133 0.909454 0.000000
0.707947 0.909180 0.000000
0.765350 0.908752 0.000000
0.832855 0.908081 0.000000
0.907104 0.907104 0.000000
0.984619 0.905853 0.000000
1.000000 0.905457 0.000000
1.000000 0.905457 0.000000
1.000000 0.905457 0.000000
1.000000 0.905457 0.000000
1.000000 0.905457 0.000000
0.000000 0.985046 0.000000
0.000000 0.985046 0.000000
0.000000 0.985046 0.000000
0.000000 0.985046 0.000000
0.000000 0.985046 0.000000
0.000000 0.985046 0.000000
0.000000 0.985046 0.000000
0.000000 0.985046 0.000000
0.000000 0.985077 0.000000
0.000000 0.985077 0.000000
0.173828 0.985077 0.000000
0.277466 0.985077 0.000000
0.348511 0.985077 0.000000
0.401947 0.985046 0.000000
0.443512 0.985016 0.000000
0.476898 0.984985 0.000000
0.505035 0.984955 0.000000
0.530518 0.984924 0.000000
0.555847 0.984863 0.000000
0.583344 0.984802 0.000000
0.615387 0.984741 0.000000
0.654053 0.984619 0.000000
0.701569 0.984406 0.000000
0.759796 0.984100 0.000000
0.828247 0.983612 0.000000
0.903503 0.982910 0.000000
0.981934 0.981964 0.000000
1.000000 0.981659 0.000000
1.000000 0.981659 0.000000
1.000000 0.981659 0.000000
1.000000 0.981659 0.000000
1.000000 0.981659 0.000000
0.000000 1.000000 0.000000
0.000000 1.000000 0.000000
0.000000 1.000000 0.000000
0.000000 1.000000 0.000000
0.000000 1.000000 0.000000
0.000000 1.000000 0.000000
0.000000 1.000000 0.000000
0.000000 1.000000 0.000000
0.000000 1.000000 0.000000
0.000000 1.000000 0.000000
0.163971 1.000000 0.000000
0.271637 1.000000 0.000000
0.344025 1.000000 0.000000
0.398163 1.000000 0.000000
0.440125 1.000000 0.000000
0.473785 1.000000 0.000000
0.502106 1.000000 0.000000
0.527771 1.000000 0.000000
