tools/disit_items/ContrastAndSaturationBoost.cube
#Created by: Adobe Photoshop Export Color Lookup Plugin
TITLE "tコントラストと彩度の上昇"
#LUT size
LUT_3D_SIZE 8
#data domain
#LUT data points
DOMAIN_MIN 0.000000 0.000000 0.000000
DOMAIN_MAX 0.903226 0.903226 0.903226
0.000000 0.000000 0.000000
0.000000 0.000000 0.000000
0.110382 0.000000 0.000000
0.409424 0.000000 0.000000
0.541840 0.000000 0.000000
0.641022 0.000000 0.000000
0.839081 0.000000 0.000000
1.000000 0.000000 0.000000
0.000000 0.000000 0.000000
0.000000 0.000000 0.000000
0.110382 0.000000 0.000000
0.409424 0.000000 0.000000
0.541840 0.000000 0.000000
0.641022 0.000000 0.000000
0.839081 0.000000 0.000000
1.000000 0.000000 0.000000
0.000000 0.110443 0.000000
0.000000 0.110443 0.000000
0.110504 0.110504 0.000000
0.410095 0.105560 0.000000
0.542419 0.098145 0.000000
0.641418 0.091705 0.000000
0.839325 0.070068 0.000000
1.000000 0.033569 0.000000
0.000000 0.412872 0.000000
0.000000 0.412872 0.000000
0.071167 0.412903 0.000000
0.411224 0.411224 0.000000
0.545563 0.408722 0.000000
0.643707 0.405914 0.000000
0.839874 0.400452 0.000000
1.000000 0.393555 0.000000
0.000000 0.545258 0.000000
0.000000 0.545258 0.000000
0.009949 0.545288 0.000000
0.404968 0.544678 0.000000
0.542969 0.542969 0.000000
0.643555 0.540955 0.000000
0.841187 0.535034 0.000000
1.000000 0.530151 0.000000
0.000000 0.643311 0.000000
0.000000 0.643311 0.000000
0.000000 0.643341 0.000000
0.396851 0.643066 0.000000
0.538239 0.642151 0.000000
0.640778 0.640778 0.000000
0.841705 0.636078 0.000000
1.000000 0.630737 0.000000
0.000000 0.839203 0.000000
0.000000 0.839203 0.000000
0.000000 0.839203 0.000000
0.374207 0.839172 0.000000
0.522461 0.838898 0.000000
0.629211 0.838409 0.000000
0.836212 0.836212 0.000000
1.000000 0.832764 0.000000
0.000000 1.000000 0.000000
0.000000 1.000000 0.000000
0.000000 1.000000 0.000000
0.344025 1.000000 0.000000
0.502106 1.000000 0.000000
0.613098 1.000000 0.000000
0.826843 1.000000 0.000000
1.000000 1.000000 0.000000
0.000000 0.000000 0.000000
0.000000 0.000000 0.000000
0.110382 0.000000 0.000000
0.409424 0.000000 0.000000
0.541840 0.000000 0.000000
0.641022 0.000000 0.000000
0.839081 0.000000 0.000000
1.000000 0.000000 0.000000
0.000000 0.000000 0.000000
0.000000 0.000000 0.000000
0.110382 0.000000 0.000000
0.409424 0.000000 0.000000
0.541840 0.000000 0.000000
0.641022 0.000000 0.000000
0.839081 0.000000 0.000000
1.000000 0.000000 0.000000
0.000000 0.110443 0.000000
0.000000 0.110443 0.000000
0.110504 0.110504 0.000000
0.410095 0.105560 0.000000
0.542419 0.098145 0.000000
0.641418 0.091705 0.000000
0.839325 0.070068 0.000000
1.000000 0.033569 0.000000
0.000000 0.412872 0.000000
0.000000 0.412872 0.000000
0.071167 0.412903 0.000000
0.411224 0.411224 0.000000
0.545563 0.408722 0.000000
0.643707 0.405914 0.000000
0.839874 0.400452 0.000000
1.000000 0.393555 0.000000
0.000000 0.545258 0.000000
0.000000 0.545258 0.000000
0.009949 0.545288 0.000000
0.404968 0.544678 0.000000
0.542969 0.542969 0.000000
0.643555 0.540955 0.000000
0.841187 0.535034 0.000000
1.000000 0.530151 0.000000
0.000000 0.643311 0.000000
0.000000 0.643311 0.000000
0.000000 0.643341 0.000000
0.396851 0.643066 0.000000
0.538239 0.642151 0.000000
0.640778 0.640778 0.000000
0.841705 0.636078 0.000000
1.000000 0.630737 0.000000
0.000000 0.839203 0.000000
0.000000 0.839203 0.000000
0.000000 0.839203 0.000000
0.374207 0.839172 0.000000
0.522461 0.838898 0.000000
0.629211 0.838409 0.000000
0.836212 0.836212 0.000000
1.000000 0.832764 0.000000
0.000000 1.000000 0.000000
0.000000 1.000000 0.000000
0.000000 1.000000 0.000000
0.344025 1.000000 0.000000
0.502106 1.000000 0.000000
0.613098 1.000000 0.000000
0.826843 1.000000 0.000000
1.000000 1.000000 0.000000
0.000000 0.000000 0.110016
0.000000 0.000000 0.110016
0.110535 0.000000 0.110535
0.410767 0.000000 0.103485
0.542969 0.000000 0.095978
0.641968 0.000000 0.088684
0.839722 0.000000 0.066101
1.000000 0.000000 0.027191
0.000000 0.000000 0.110016
0.000000 0.000000 0.110016
0.110535 0.000000 0.110535
0.410767 0.000000 0.103485
0.542969 0.000000 0.095978
0.641968 0.000000 0.088684
0.839722 0.000000 0.066101
1.000000 0.000000 0.027191
0.000000 0.111023 0.111053
0.000000 0.111023 0.111053
0.110260 0.110260 0.110260
0.410858 0.102081 0.102112
0.543213 0.093903 0.093933
0.642242 0.086273 0.086304
0.839935 0.062897 0.062958
1.000000 0.021820 0.021912
0.000000 0.413788 0.050964
0.000000 0.413788 0.050964
0.048767 0.413849 0.048859
0.412262 0.412262 0.057983
0.547729 0.408630 0.043823
0.644257 0.405426 0.059174
0.840210 0.399872 0.043762
1.000000 0.392578 0.000000
0.000000 0.545929 0.000000
0.000000 0.545929 0.000000
0.000000 0.545959 0.000000
0.403992 0.545441 0.000000
0.543732 0.543732 0.003967
0.644867 0.541321 0.000000
0.841644 0.534668 0.000000
1.000000 0.529633 0.000000
0.000000 0.643799 0.000000
0.000000 0.643799 0.000000
0.000000 0.643829 0.000000
0.395111 0.643616 0.000000
0.538025 0.642731 0.000000
0.641296 0.641296 0.000000
0.842682 0.635925 0.000000
1.000000 0.630341 0.000000
0.000000 0.839478 0.000000
0.000000 0.839478 0.000000
0.000000 0.839478 0.000000
0.371460 0.839478 0.000000
0.521118 0.839203 0.000000
0.628540 0.838715 0.000000
0.836456 0.836456 0.000000
1.000000 0.832703 0.000000
0.000000 1.000000 0.000000
0.000000 1.000000 0.000000
0.000000 1.000000 0.000000
0.340149 1.000000 0.000000
0.500000 1.000000 0.000000
0.611725 1.000000 0.000000
0.826447 1.000000 0.000000
1.000000 1.000000 0.000000
0.000000 0.000000 0.409821
0.000000 0.000000 0.409821
0.094879 0.000000 0.410492
0.412689 0.000000 0.412689
0.548279 0.000000 0.410339
0.646973 0.000000 0.406189
0.842712 0.000000 0.397949
1.000000 0.000000 0.389648
0.000000 0.000000 0.409821
0.000000 0.000000 0.409821
0.094879 0.000000 0.410492
0.412689 0.000000 0.412689
0.548279 0.000000 0.410339
0.646973 0.000000 0.406189
0.842712 0.000000 0.397949
1.000000 0.000000 0.389648
0.000000 0.083282 0.411652
0.000000 0.083282 0.411652
0.078308 0.078308 0.412140
0.413910 0.057037 0.413910
0.549377 0.048096 0.410095
0.647095 0.037231 0.405548
0.842529 0.005493 0.397614
1.000000 0.000000 0.389252
0.000000 0.412933 0.412964
0.000000 0.412933 0.412964
0.000000 0.412720 0.412720
0.405334 0.405365 0.405396
0.539185 0.404663 0.404663
0.639282 0.403198 0.403198
0.839783 0.396576 0.396576
1.000000 0.385559 0.385590
0.000000 0.548126 0.397003
0.000000 0.548126 0.397003
0.000000 0.547882 0.395874
0.387573 0.545074 0.387634
0.543884 0.543884 0.387238
0.650085 0.538330 0.382599
0.839233 0.533325 0.395233
1.000000 0.525330 0.382965
0.000000 0.645813 0.380737
0.000000 0.645813 0.380737
0.000000 0.645691 0.379730
0.373779 0.644989 0.373840
0.532013 0.644592 0.373871
0.642975 0.642975 0.373840
0.845703 0.633118 0.374115
1.000000 0.628387 0.380676
0.000000 0.841370 0.344421
0.000000 0.841370 0.344421
0.000000 0.841400 0.343719
0.339111 0.841431 0.339203
0.505188 0.841339 0.338470
0.620300 0.840973 0.339386
0.838135 0.838135 0.342255
1.000000 0.831360 0.332764
0.000000 1.000000 0.305023
0.000000 1.000000 0.305023
0.000000 1.000000 0.304596
0.301239 1.000000 0.301392
0.479706 1.000000 0.300262
0.598511 1.000000 0.300354
0.822205 1.000000 0.303223
1.000000 1.000000 0.304962
0.000000 0.000000 0.541687
0.000000 0.000000 0.541687
0.076538 0.000000 0.542114
0.406006 0.000000 0.544617
0.545044 0.000000 0.545044
0.647766 0.000000 0.544159
0.845398 0.000000 0.535522
1.000000 0.000000 0.527100
0.000000 0.000000 0.541687
0.000000 0.000000 0.541687
0.076538 0.000000 0.542114
0.406006 0.000000 0.544617
0.545044 0.000000 0.545044
0.647766 0.000000 0.544159
0.845398 0.000000 0.535522
1.000000 0.000000 0.527100
0.000000 0.062347 0.542938
0.000000 0.062347 0.542938
0.055908 0.055939 0.543304
0.405151 0.008881 0.545563
0.545959 0.000183 0.545959
0.649078 0.000000 0.544586
0.845520 0.000000 0.535065
1.000000 0.000000 0.526642
0.000000 0.398407 0.546295
0.000000 0.398407 0.546295
0.000000 0.397552 0.546295
0.389496 0.389496 0.545288
0.545563 0.388428 0.545593
0.647919 0.391327 0.539856
0.841766 0.390350 0.531708
1.000000 0.380707 0.524292
0.000000 0.545044 0.545044
0.000000 0.545044 0.545044
0.000000 0.544891 0.544922
0.379669 0.541779 0.541779
0.536102 0.536133 0.536163
0.636566 0.535828 0.535858
0.837646 0.532257 0.532257
1.000000 0.523895 0.523926
0.000000 0.646973 0.535034
0.000000 0.646973 0.535034
0.000000 0.646851 0.534485
0.359558 0.644073 0.527222
0.522949 0.641571 0.523010
0.640625 0.640656 0.522308
0.837280 0.633667 0.531403
1.000000 0.627380 0.522797
0.000000 0.842285 0.500977
0.000000 0.842285 0.500977
0.000000 0.842224 0.500397
0.318390 0.841522 0.496002
0.494446 0.841339 0.494507
0.614075 0.841187 0.494263
0.838501 0.838531 0.493347
1.000000 0.829620 0.483643
0.000000 1.000000 0.471527
0.000000 1.000000 0.471527
0.000000 1.000000 0.471161
0.275696 1.000000 0.468292
0.466888 1.000000 0.466980
0.590118 1.000000 0.466522
0.819366 1.000000 0.466888
1.000000 1.000000 0.465546
0.000000 0.000000 0.639709
0.000000 0.000000 0.639709
0.055634 0.000000 0.640045
0.399841 0.000000 0.642181
0.539429 0.000000 0.643097
0.643250 0.000000 0.643250
0.846222 0.000000 0.639038
1.000000 0.000000 0.630676
0.000000 0.000000 0.639709
0.000000 0.000000 0.639709
0.055634 0.000000 0.640045
0.399841 0.000000 0.642181
0.539429 0.000000 0.643097
0.643250 0.000000 0.643250
0.846222 0.000000 0.639038
1.000000 0.000000 0.630676
0.000000 0.037445 0.640594
0.000000 0.037445 0.640594
0.029358 0.029388 0.640869
0.398254 0.000000 0.642883
0.539276 0.000000 0.643768
0.643890 0.000000 0.643890
0.846863 0.000000 0.638916
1.000000 0.000000 0.630219
0.000000 0.387634 0.643982
0.000000 0.387634 0.643982
0.000000 0.386658 0.644073
0.378571 0.378571 0.644623
0.533203 0.376007 0.645386
0.645569 0.375488 0.645599
0.847168 0.377869 0.635162
1.000000 0.371216 0.626556
0.000000 0.533783 0.644470
0.000000 0.533783 0.644470
0.000000 0.533356 0.644470
0.362976 0.527740 0.643311
0.523834 0.523834 0.641876
0.641998 0.523499 0.642029
0.840973 0.526917 0.632507
1.000000 0.521576 0.626801
0.000000 0.643036 0.643066
0.000000 0.643036 0.643066
0.000000 0.642975 0.643005
0.355621 0.641541 0.641571
0.518524 0.638824 0.638855
0.634369 0.634399 0.634430
0.835693 0.632874 0.632874
1.000000 0.627106 0.627106
0.000000 0.843414 0.617889
0.000000 0.843414 0.617889
0.000000 0.843323 0.617432
0.307556 0.841888 0.612793
0.486420 0.840607 0.609650
0.608490 0.840210 0.608551
0.838104 0.838135 0.607117
1.000000 0.828400 0.602142
0.000000 1.000000 0.589478
0.000000 1.000000 0.589478
0.000000 1.000000 0.589081
0.255920 1.000000 0.585815
0.457031 1.000000 0.584229
0.583435 1.000000 0.583496
0.816864 1.000000 0.583038
1.000000 1.000000 0.580536
0.000000 0.000000 0.835876
0.000000 0.000000 0.835876
0.000000 0.000000 0.835999
0.386749 0.000000 0.837280
0.526703 0.000000 0.838135
0.631073 0.000000 0.838776
0.839264 0.000000 0.839264
1.000000 0.000000 0.837036
0.000000 0.000000 0.835876
0.000000 0.000000 0.835876
0.000000 0.000000 0.835999
0.386749 0.000000 0.837280
0.526703 0.000000 0.838135
0.631073 0.000000 0.838776
0.839264 0.000000 0.839264
1.000000 0.000000 0.837036
0.000000 0.000000 0.836243
0.000000 0.000000 0.836243
0.000000 0.000000 0.836395
0.384277 0.000000 0.837616
0.525452 0.000000 0.838501
0.630493 0.000000 0.839142
0.839630 0.000000 0.839630
1.000000 0.000000 0.837128
0.000000 0.367218 0.838715
0.000000 0.367218 0.838715
0.000000 0.366119 0.838806
0.356567 0.356598 0.839783
0.510864 0.350739 0.840607
0.622711 0.347290 0.841370
0.842072 0.344330 0.842102
1.000000 0.340118 0.836670
0.000000 0.509277 0.839691
0.000000 0.509277 0.839691
0.000000 0.508514 0.839722
0.331421 0.501434 0.840210
0.498383 0.498383 0.840668
0.615631 0.496979 0.841278
0.842102 0.496216 0.842133
1.000000 0.497528 0.834595
0.000000 0.618286 0.840271
0.000000 0.618286 0.840271
0.000000 0.617889 0.840271
0.317657 0.614105 0.840149
0.490143 0.611328 0.839905
0.609741 0.609772 0.839996
0.840820 0.609436 0.840881
1.000000 0.611938 0.832123
0.000000 0.838654 0.838684
0.000000 0.838654 0.838684
0.000000 0.838623 0.838654
0.297607 0.838348 0.838379
0.479950 0.837799 0.837830
0.601929 0.836945 0.836975
0.832031 0.832031 0.832092
1.000000 0.830597 0.830627
0.000000 1.000000 0.820862
0.000000 1.000000 0.820862
0.000000 1.000000 0.820679
0.243225 1.000000 0.818542
0.450287 1.000000 0.816772
0.578003 1.000000 0.815247
0.813293 1.000000 0.813354
1.000000 1.000000 0.810760
0.000000 0.000000 1.000000
0.000000 0.000000 1.000000
0.000000 0.000000 1.000000
0.373413 0.000000 1.000000
0.515015 0.000000 1.000000
0.619659 0.000000 1.000000
0.828888 0.000000 1.000000
1.000000 0.000000 1.000000
0.000000 0.000000 1.000000
0.000000 0.000000 1.000000
0.000000 0.000000 1.000000
0.373413 0.000000 1.000000
0.515015 0.000000 1.000000
0.619659 0.000000 1.000000
0.828888 0.000000 1.000000
1.000000 0.000000 1.000000
0.000000 0.000000 1.000000
0.000000 0.000000 1.000000
0.000000 0.000000 1.000000
0.370331 0.000000 1.000000
0.513214 0.000000 1.000000
0.618469 0.000000 1.000000
0.828552 0.000000 1.000000
1.000000 0.000000 1.000000
0.000000 0.347687 1.000000
0.000000 0.347687 1.000000
0.000000 0.346466 1.000000
0.334473 0.334473 1.000000
0.492218 0.325623 1.000000
0.604431 0.319214 1.000000
0.824524 0.311493 1.000000
1.000000 0.309204 1.000000
0.000000 0.488007 1.000000
0.000000 0.488007 1.000000
0.000000 0.487122 1.000000
0.302582 0.480469 1.000000
0.476654 0.476685 1.000000
0.594788 0.474121 1.000000
0.821411 0.471313 1.000000
1.000000 0.470490 1.000000
0.000000 0.596802 1.000000
0.000000 0.596802 1.000000
0.000000 0.596313 1.000000
0.280609 0.591858 1.000000
0.465179 0.588928 1.000000
0.587097 0.587097 1.000000
0.818390 0.585632 1.000000
1.000000 0.585480 1.000000
0.000000 0.818054 1.000000
0.000000 0.818054 1.000000
0.000000 0.817871 1.000000
0.245087 0.816071 1.000000
0.448914 0.814697 1.000000
0.576202 0.813599 1.000000
0.812683 0.812714 1.000000
1.000000 0.813873 1.000000
0.000000 1.000000 1.000000
0.000000 1.000000 1.000000
0.000000 1.000000 1.000000
0.220642 1.000000 1.000000
0.440521 1.000000 1.000000
0.571869 1.000000 1.000000
0.812408 1.000000 1.000000
1.000000 1.000000 0.999725
