tools/disit_items/ContrastAndSaturationBoost.cube
#Created by: Adobe Photoshop Export Color Lookup Plugin
TITLE "tコントラストと彩度の上昇"
#LUT size
LUT_3D_SIZE 5
#data domain
#LUT data points
DOMAIN_MIN 0.000000 0.000000 0.000000
DOMAIN_MAX 0.903226 0.903226 0.903226
0.000000 0.000000 0.000000
0.006836 0.000000 0.000000
0.488312 0.000000 0.000000
0.676544 0.000000 0.000000
1.000000 0.000000 0.000000
0.000000 0.006866 0.000000
0.006866 0.006866 0.000000
0.488373 0.000000 0.000000
0.676544 0.000000 0.000000
1.000000 0.000000 0.000000
0.000000 0.491699 0.000000
0.000000 0.491699 0.000000
0.489777 0.489777 0.000000
0.680145 0.485413 0.000000
1.000000 0.475098 0.000000
0.000000 0.678345 0.000000
0.000000 0.678345 0.000000
0.479095 0.677826 0.000000
0.675690 0.675720 0.000000
1.000000 0.666748 0.000000
0.000000 1.000000 0.000000
0.000000 1.000000 0.000000
0.440125 1.000000 0.000000
0.651947 1.000000 0.000000
1.000000 1.000000 0.000000
0.000000 0.000000 0.006866
0.006866 0.000000 0.006866
0.488434 0.000000 0.000000
0.676575 0.000000 0.000000
1.000000 0.000000 0.000000
0.000000 0.006866 0.006866
0.006836 0.006836 0.006836
0.488464 0.000000 0.000000
0.676605 0.000000 0.000000
1.000000 0.000000 0.000000
0.000000 0.491730 0.000000
0.000000 0.491730 0.000000
0.489807 0.489807 0.000000
0.680206 0.485382 0.000000
1.000000 0.475067 0.000000
0.000000 0.678345 0.000000
0.000000 0.678345 0.000000
0.479034 0.677856 0.000000
0.675720 0.675720 0.000000
1.000000 0.666718 0.000000
0.000000 1.000000 0.000000
0.000000 1.000000 0.000000
0.440002 1.000000 0.000000
0.651917 1.000000 0.000000
1.000000 1.000000 0.000000
0.000000 0.000000 0.488342
0.000000 0.000000 0.488373
0.491486 0.000000 0.491486
0.683502 0.000000 0.487274
1.000000 0.000000 0.471466
0.000000 0.000000 0.488434
0.000000 0.000000 0.488464
0.491547 0.000000 0.491547
0.683533 0.000000 0.487274
1.000000 0.000000 0.471466
0.000000 0.491760 0.491791
0.000000 0.491760 0.491760
0.483154 0.483154 0.483185
0.673492 0.481873 0.481873
1.000000 0.467651 0.467651
0.000000 0.681549 0.466980
0.000000 0.681549 0.466949
0.456787 0.679474 0.456879
0.677643 0.677643 0.456024
1.000000 0.664398 0.464874
0.000000 1.000000 0.406403
0.000000 1.000000 0.406372
0.402222 1.000000 0.402313
0.635437 1.000000 0.401672
1.000000 1.000000 0.402283
0.000000 0.000000 0.674774
0.000000 0.000000 0.674774
0.480804 0.000000 0.677643
0.678284 0.000000 0.678284
1.000000 0.000000 0.667816
0.000000 0.000000 0.674805
0.000000 0.000000 0.674805
0.480774 0.000000 0.677673
0.678314 0.000000 0.678314
1.000000 0.000000 0.667816
0.000000 0.470184 0.679321
0.000000 0.470154 0.679321
0.459595 0.459625 0.679352
0.680084 0.457916 0.680115
1.000000 0.458282 0.662903
0.000000 0.678101 0.678131
0.000000 0.678101 0.678131
0.446930 0.675903 0.675934
0.669617 0.669617 0.669678
1.000000 0.663727 0.663757
0.000000 1.000000 0.631317
0.000000 1.000000 0.631287
0.379150 1.000000 0.626404
0.624664 1.000000 0.624756
1.000000 1.000000 0.621521
0.000000 0.000000 1.000000
0.000000 0.000000 1.000000
0.458191 0.000000 1.000000
0.657043 0.000000 1.000000
1.000000 0.000000 1.000000
0.000000 0.000000 1.000000
0.000000 0.000000 1.000000
0.458099 0.000000 1.000000
0.656982 0.000000 1.000000
1.000000 0.000000 1.000000
0.000000 0.431244 1.000000
0.000000 0.431183 1.000000
0.417358 0.417389 1.000000
0.639343 0.411163 1.000000
1.000000 0.407104 1.000000
0.000000 0.636169 1.000000
0.000000 0.636139 1.000000
0.390381 0.630157 1.000000
0.626923 0.626923 1.000000
1.000000 0.626373 1.000000
0.000000 1.000000 1.000000
0.000000 1.000000 1.000000
0.361969 1.000000 1.000000
0.616364 1.000000 1.000000
1.000000 1.000000 0.999725
